X: 1081
T: Quay Fair (A38)
N: page A38
N: heptatonic
M: 4/4
L: 1/8
K: Dm
|: FE|"D" D2 DE FEFG|A2 d2 "A" A3 G|"D"F2 D2 D2 EF|\
"C"G2 E2 E2 FE|"D"D2 DE FEFG|
A2 d2 "A"A3 G| "D"F2 D2 "C"=C2 E2|"D" D4 D2:: ^c2|"D"d2 A2 ABAF|\
"G"G2 B2 "A"A3 G|F2 D2 D2 EF|
"C"G2 E2 E2 A2| "D"d2 A2 ABAF|"G" G2 B2 "A"A3G|"D"D2 D2 "C"=C2 E2|"D"D4 D2:|
